X: 1262
T: Bert Jamieson's Waltz No 2
B: australian traditional tunes wiki
M:3/4
L:1/8
R: Waltz
Q: 1/4=100
K:G
V:1 
|:DE|"G"D2B2G2|D2G2F2|"Am"E2c2A2|"A7"E2A2G2|
"D"F2e2d2|1d2A2c2|"G"B6|B4:|2c2E2F2|"G"G6|G4DG||
B2A2G2|B,2D2G2|"D"F6|F4DF|A2G2F2|A,2C2E2|D6|D4E2|
D2E2F2|"G"G2A2B2|"D"c2B2A2|"G"d6|"D"A2B2c2|B4A2|"G"G6-|G4||
% abcbook-tune_id 6342d53a93ece6702991275b


% abcbook-boost 0
% abcbook-tablature 
% abcbook-transpose 
% abcbook-lastupdated 1665324356512
% abcbook-soundfonts 
% abcbook-repeats 1
% NFF Book 2009

